X:22
T:Old Grey Cat, The
R:march
H:See also "Smuggler's Reel" reel#711
Z:id:hn-march-22
M:2/4
L:1/8
K:Edor
ee E>F | G/F/G/A/ B/A/B/c/ | dd D>E | F/A/d/B/ A/F/E/D/ |
ee E>F | G/F/G/A/ B/A/B/c/ | d/c/B/A/ B/A/G/F/ |1 E2 E>B :|2 E2 E>A ||
|: Be e>d | B/d/e/f/ g/f/e/d/ | Ad d>B | A/B/d/e/ f/e/d/f/ |
eB gB | aB b>a | g/f/e/d/ B/A/B/d/ | e2e2 :|
<end>
<start>
